public/sponsors/AssemblyAI.svg

<svg xmlns="http://www.w3.org/2000/svg" width="1200" height="800" fill="none" viewBox="0 0 1200 800"><path fill="#fff" d="M0 0h1200v800H0z"/><g clip-path="url(#a)"><path fill="#4a55ff" d="M383.93 443.194q-1.037 0-1.946-.779-.777-.908-.778-1.946 0-.777.13-1.167l30.485-83.284q.39-1.557 1.687-2.595t3.373-1.038h19.199q2.076 0 3.373 1.038t1.687 2.595l30.355 83.284.26 1.167q0 1.038-.908 1.946-.778.779-1.946.779h-15.957q-3.113 0-4.151-2.725l-5.059-13.231h-34.637l-4.929 13.231q-1.038 2.725-4.281 2.725zm54.615-34.637-12.064-34.248-12.065 34.248zM501.108 444.49q-10.509 0-17.644-2.984-7.004-2.983-10.378-7.134-3.372-4.152-3.372-7.395 0-1.296.908-2.075 1.038-.909 2.205-.909h14.789q.779 0 1.427.649 1.557 1.038 2.335 1.687 2.854 2.075 4.93 3.113 2.205.908 5.318.908 3.763 0 6.097-1.427 2.466-1.556 2.466-4.281 0-2.205-1.298-3.502-1.168-1.298-4.67-2.465-3.502-1.298-10.638-2.724-10.767-2.206-16.605-7.135-5.707-5.06-5.707-13.492 0-5.32 3.372-10.118 3.373-4.8 9.989-7.784 6.746-2.984 15.956-2.984 9.211 0 16.087 2.854t10.378 7.005q3.632 4.022 3.632 7.395 0 1.167-.908 2.075-.779.909-1.946.909h-13.492q-1.037 0-1.945-.649a19.7 19.7 0 0 1-2.984-1.946q-2.205-1.686-4.151-2.594-1.946-.909-4.8-.909-3.373 0-5.449 1.557-1.945 1.557-1.945 4.021 0 1.947 1.037 3.244 1.168 1.296 4.67 2.594 3.633 1.168 10.638 2.465 12.583 2.205 18.292 7.784 5.837 5.578 5.837 13.102 0 9.6-8.562 15.438-8.562 5.707-23.869 5.707M565.604 444.49q-10.508 0-17.642-2.984-7.006-2.983-10.379-7.134-3.373-4.152-3.373-7.395 0-1.296.908-2.075 1.038-.909 2.206-.909h14.789q.777 0 1.427.649 1.556 1.038 2.334 1.687 2.855 2.075 4.93 3.113 2.206.908 5.319.908 3.763 0 6.097-1.427 2.465-1.556 2.465-4.281 0-2.205-1.297-3.502-1.167-1.298-4.67-2.465-3.502-1.298-10.638-2.724-10.767-2.206-16.605-7.135-5.708-5.06-5.708-13.492 0-5.32 3.373-10.118 3.372-4.8 9.989-7.784 6.746-2.984 15.956-2.984t16.086 2.854 10.378 7.005q3.632 4.022 3.632 7.395 0 1.167-.907 2.075-.779.909-1.946.909h-13.492q-1.038 0-1.946-.649a19.7 19.7 0 0 1-2.983-1.946q-2.205-1.686-4.152-2.594-1.946-.909-4.8-.909-3.372 0-5.448 1.557-1.946 1.557-1.946 4.021 0 1.947 1.038 3.244 1.167 1.296 4.67 2.594 3.632 1.168 10.638 2.465 12.584 2.205 18.291 7.784 5.838 5.578 5.838 13.102 0 9.6-8.562 15.438-8.562 5.707-23.87 5.707M633.475 444.49q-15.567 0-24.519-8.432t-9.34-24.518V407q.518-15.308 9.47-23.87 9.08-8.692 24.259-8.692 11.027 0 18.551 4.541 7.653 4.41 11.416 12.194 3.892 7.783 3.892 17.902v3.114q0 1.297-.909 2.335-.908.908-2.335.908h-41.512v.908q.26 6.097 2.983 9.859 2.725 3.762 7.914 3.762 3.243 0 5.319-1.297a20 20 0 0 0 3.762-3.373q1.167-1.427 1.816-1.687.778-.389 2.335-.389h16.086q1.167 0 1.946.778.908.649.908 1.817 0 3.372-3.892 7.784-3.763 4.41-11.026 7.653-7.266 3.243-17.124 3.243m10.896-41.901v-.26q0-6.356-2.983-9.988-2.855-3.763-8.043-3.763-5.06 0-8.043 3.763-2.854 3.632-2.854 9.988v.26zM675.401 443.193q-1.426 0-2.335-.908-.908-.908-.908-2.335v-60.971q0-1.428.908-2.336.909-.907 2.335-.907h14.14q1.428 0 2.335.907.909.908.908 2.336v4.41q2.985-3.891 7.914-6.356 5.06-2.595 11.286-2.595c9.514 0 16.084 3.719 19.72 11.157q3.113-4.93 8.69-8.044 5.577-3.113 11.938-3.113 10.63 0 17.252 7.265 6.744 7.135 6.744 21.405v36.842q0 1.297-.906 2.335-.907.909-2.336.908h-15.05q-1.428 0-2.463-.908-.906-.908-.906-2.335v-35.934c0-4.324-.912-7.438-2.725-9.34q-2.597-2.855-7.139-2.855c-2.765 0-5.059.995-6.872 2.984q-2.726 2.854-2.724 9.211v35.934q.002 1.297-.912 2.335-.906.909-2.335.908h-15.045q-1.428 0-2.337-.908-.908-.908-.908-2.335v-35.934q0-6.357-2.853-9.211-2.725-2.984-7.006-2.984-4.15 0-7.005 2.984-2.724 2.854-2.724 9.081v36.064q0 1.297-.909 2.335-.907.909-2.335.908zM825.034 444.491q-12.975 0-20.104-8.692v4.152c0 .864-.308 1.642-.912 2.334q-.906.909-2.335.909h-14.656q-1.298 0-2.335-.909-.913-1.038-.912-2.334v-85.62q-.001-1.427.912-2.335 1.037-.908 2.335-.908h15.824q1.428 0 2.335.908c.604.605.912 1.384.912 2.335v27.761c4.838-5.102 11.153-7.653 18.936-7.653q12.583 0 19.849 8.172c4.845 5.449 7.435 12.843 7.784 22.183q.13 1.687.128 4.671.001 2.853-.128 4.54-.646 14.529-7.784 22.572-7.135 7.914-19.849 7.914m-7.005-17.384q6.1 0 8.69-3.632 2.728-3.633 3.114-9.989.261-2.595.261-4.021 0-1.427-.261-4.022-.386-6.356-3.114-9.989-2.59-3.632-8.69-3.632-5.708 0-8.69 3.502-2.988 3.504-3.241 8.822l-.134 4.8.134 4.929q.384 5.838 3.113 9.6 2.85 3.633 8.818 3.632M861.659 443.194q-1.298 0-2.335-.909-.913-1.038-.912-2.334v-85.62q-.002-1.427.912-2.335 1.037-.908 2.335-.908h15.306q1.429 0 2.336.908t.906 2.335v85.62q0 1.426-.906 2.334-.907.909-2.336.909zM900.91 467.842q-1.17 0-1.946-.779-.777-.778-.779-1.946-.001-.907.389-1.686l10.119-24.389-24.908-58.896q-.39-1.037-.389-1.556c.174-.779.517-1.427 1.04-1.946q.777-.909 1.946-.908h14.789q2.72 0 3.758 2.724l14.79 37.75 15.178-37.75q1.296-2.724 3.892-2.724h14.528q1.169 0 1.946.908.913.778.912 1.816c0 .346-.134.908-.39 1.686l-36.711 84.971c-.692 1.816-1.993 2.725-3.892 2.725zM949.57 443.194q-1.038 0-1.946-.779c-.523-.605-.778-1.254-.778-1.946 0-.518.04-.907.128-1.167l30.484-83.284q.393-1.557 1.691-2.595c.859-.692 1.986-1.038 3.369-1.038h19.202c1.38 0 2.51.346 3.37 1.038.87.692 1.43 1.557 1.69 2.595l30.35 83.284.26 1.167q0 1.038-.9 1.946c-.53.519-1.17.779-1.95.779h-15.96c-2.08 0-3.46-.909-4.15-2.725l-5.06-13.231h-34.636l-4.926 13.231c-.697 1.816-2.12 2.725-4.281 2.725zm54.61-34.637-12.06-34.248-12.065 34.248zM1043.66 443.194q-1.305 0-2.34-.909c-.6-.692-.91-1.47-.91-2.334v-84.323c0-.951.31-1.729.91-2.335q1.035-.908 2.34-.908h17.38c.95 0 1.73.303 2.33.908.69.606 1.04 1.384 1.04 2.335v84.323c0 .951-.35 1.729-1.04 2.334-.6.606-1.38.909-2.33.909z"/><mask id="b" width="188" height="188" x="135" y="306" maskUnits="userSpaceOnUse" style="mask-type:luminance"><path fill="#fff" d="M322.382 306H135v187.382h187.382z"/></mask><g mask="url(#b)"><path fill="url(#c)" d="m152.704 431.316-14.827 34.855c-4.161 9.759-4.943 20.887 5.476 24.763a21.3 21.3 0 0 0 7.538 1.37c8.036 0 15.681-4.545 18.846-11.997l2.987-7.017 22.864-53.703 22.757-53.503c5.432-9.509 8.762-24.144 30.083-32.014-16.575-2.125-49.989-6.5-50.323-6.5-.214.334-2.446 3.727-2.659 4.061-.463.735-.925 1.504-1.28 2.306-.036.067-.036.1-.071.133l-41.355 97.179s-.036.034-.036.067"/><path fill="url(#d)" d="m300.943 431.315 14.828 34.856c4.16 9.757 4.943 20.886-5.476 24.762a21.3 21.3 0 0 1-7.538 1.37c-8.037 0-15.682-4.545-18.846-11.997l-2.987-7.017-22.864-53.703-22.757-53.503c-5.432-9.51-14.6-29.168-39.086-35.523 3.093-7.251 13.696-8.488 21.982-8.488h22.65c.889.034 1.743.134 2.667.268.463.066.96.066 1.423.167.604.133 1.173.367 1.778.534.675.201 1.351.335 1.991.602.284.134.569.301.853.434.889.401 1.743.802 2.56 1.304.57.334 1.031.802 1.565 1.203.462.367.996.701 1.422 1.102.392.401.747.869 1.138 1.304.463.534.96 1.002 1.351 1.57.214.335.392.736.605 1.07.462.735.924 1.504 1.28 2.306.036.066.036.1.071.133l41.355 97.179s.035.034.035.067"/></g></g><defs><radialGradient id="c" cx="0" cy="0" r="1" gradientTransform="rotate(112.412 -13.027 241.647)scale(160.555 109.595)" gradientUnits="userSpaceOnUse"><stop stop-color="#142167"/><stop offset="1" stop-color="#263db5"/></radialGradient><radialGradient id="d" cx="0" cy="0" r="1" gradientTransform="rotate(132.41 74.122 247.367)scale(149.029 521.431)" gradientUnits="userSpaceOnUse"><stop stop-color="#4259d4"/><stop offset="1" stop-color="#6a81fc"/></radialGradient><clipPath id="a"><path fill="#fff" d="M135 306h930v187.382H135z"/></clipPath></defs></svg>

<svg width="1200" height="800" viewBox="0 0 1200 800" fill="none" xmlns="http://www.w3.org/2000/svg">
<rect width="1200" height="800" fill="white"/>
<g clip-path="url(#clip0_642_175)">
<path d="M383.93 443.194C383.239 443.194 382.59 442.934 381.984 442.415C381.466 441.81 381.206 441.161 381.206 440.469C381.206 439.951 381.249 439.562 381.336 439.302L411.821 356.018C412.081 354.98 412.643 354.115 413.508 353.423C414.373 352.731 415.497 352.385 416.881 352.385H436.08C437.464 352.385 438.588 352.731 439.453 353.423C440.318 354.115 440.88 354.98 441.14 356.018L471.495 439.302L471.755 440.469C471.755 441.161 471.452 441.81 470.847 442.415C470.328 442.934 469.68 443.194 468.901 443.194H452.944C450.869 443.194 449.485 442.285 448.793 440.469L443.734 427.238H409.097L404.168 440.469C403.476 442.285 402.049 443.194 399.887 443.194H383.93ZM438.545 408.557L426.481 374.309L414.416 408.557H438.545Z" fill="#4A55FF"/>
<path d="M501.108 444.49C494.102 444.49 488.221 443.496 483.464 441.506C478.795 439.518 475.335 437.139 473.086 434.372C470.838 431.604 469.714 429.139 469.714 426.977C469.714 426.113 470.017 425.421 470.622 424.902C471.314 424.296 472.049 423.993 472.827 423.993H487.616C488.135 423.993 488.611 424.21 489.043 424.642C490.081 425.334 490.859 425.896 491.378 426.329C493.281 427.712 494.924 428.75 496.308 429.442C497.778 430.047 499.551 430.35 501.626 430.35C504.135 430.35 506.166 429.875 507.723 428.923C509.367 427.885 510.189 426.459 510.189 424.642C510.189 423.172 509.756 422.005 508.891 421.14C508.112 420.275 506.556 419.453 504.221 418.675C501.886 417.81 498.34 416.902 493.583 415.951C486.405 414.48 480.87 412.102 476.978 408.816C473.173 405.443 471.271 400.946 471.271 395.324C471.271 391.778 472.395 388.405 474.643 385.206C476.892 382.006 480.221 379.411 484.632 377.422C489.129 375.433 494.448 374.438 500.588 374.438C506.729 374.438 512.091 375.389 516.675 377.292C521.258 379.195 524.718 381.53 527.053 384.297C529.474 386.979 530.685 389.443 530.685 391.692C530.685 392.47 530.382 393.162 529.777 393.767C529.258 394.373 528.609 394.676 527.831 394.676H514.339C513.648 394.676 512.999 394.459 512.394 394.027C511.27 393.422 510.274 392.773 509.41 392.081C507.94 390.957 506.556 390.092 505.259 389.487C503.961 388.881 502.362 388.578 500.459 388.578C498.21 388.578 496.394 389.098 495.01 390.135C493.713 391.173 493.065 392.513 493.065 394.156C493.065 395.454 493.41 396.535 494.102 397.4C494.881 398.264 496.437 399.129 498.772 399.994C501.194 400.773 504.74 401.594 509.41 402.459C517.799 403.929 523.896 406.524 527.702 410.243C531.593 413.962 533.539 418.329 533.539 423.345C533.539 429.745 530.685 434.891 524.977 438.783C519.269 442.588 511.313 444.49 501.108 444.49Z" fill="#4A55FF"/>
<path d="M565.604 444.49C558.599 444.49 552.718 443.496 547.962 441.506C543.291 439.518 539.832 437.139 537.583 434.372C535.334 431.604 534.21 429.139 534.21 426.977C534.21 426.113 534.513 425.421 535.118 424.902C535.81 424.296 536.546 423.993 537.324 423.993H552.113C552.631 423.993 553.107 424.21 553.54 424.642C554.577 425.334 555.356 425.896 555.874 426.329C557.777 427.712 559.421 428.75 560.804 429.442C562.275 430.047 564.047 430.35 566.123 430.35C568.631 430.35 570.664 429.875 572.22 428.923C573.863 427.885 574.685 426.459 574.685 424.642C574.685 423.172 574.252 422.005 573.388 421.14C572.61 420.275 571.053 419.453 568.718 418.675C566.383 417.81 562.837 416.902 558.08 415.951C550.902 414.48 545.367 412.102 541.475 408.816C537.67 405.443 535.767 400.946 535.767 395.324C535.767 391.778 536.891 388.405 539.14 385.206C541.388 382.006 544.718 379.411 549.129 377.422C553.626 375.433 558.945 374.438 565.085 374.438C571.225 374.438 576.588 375.389 581.171 377.292C585.755 379.195 589.214 381.53 591.549 384.297C593.971 386.979 595.181 389.443 595.181 391.692C595.181 392.47 594.879 393.162 594.274 393.767C593.755 394.373 593.106 394.676 592.328 394.676H578.836C578.144 394.676 577.496 394.459 576.89 394.027C575.766 393.422 574.772 392.773 573.907 392.081C572.437 390.957 571.053 390.092 569.755 389.487C568.458 388.881 566.858 388.578 564.955 388.578C562.707 388.578 560.891 389.098 559.507 390.135C558.21 391.173 557.561 392.513 557.561 394.156C557.561 395.454 557.907 396.535 558.599 397.4C559.377 398.264 560.934 399.129 563.269 399.994C565.691 400.773 569.236 401.594 573.907 402.459C582.296 403.929 588.393 406.524 592.198 410.243C596.09 413.962 598.036 418.329 598.036 423.345C598.036 429.745 595.182 434.891 589.474 438.783C583.766 442.588 575.809 444.49 565.604 444.49Z" fill="#4A55FF"/>
<path d="M633.475 444.49C623.097 444.49 614.924 441.68 608.956 436.058C602.989 430.437 599.875 422.264 599.616 411.54V407C599.962 396.794 603.118 388.838 609.086 383.13C615.14 377.335 623.226 374.438 633.345 374.438C640.696 374.438 646.88 375.952 651.896 378.979C656.998 381.919 660.803 385.984 663.312 391.173C665.906 396.362 667.204 402.329 667.204 409.075V412.189C667.204 413.054 666.901 413.832 666.295 414.524C665.69 415.129 664.911 415.432 663.96 415.432H622.448V416.34C622.621 420.405 623.615 423.691 625.431 426.199C627.248 428.707 629.885 429.961 633.345 429.961C635.507 429.961 637.28 429.529 638.664 428.664C640.047 427.712 641.302 426.588 642.426 425.291C643.204 424.34 643.809 423.777 644.242 423.604C644.761 423.345 645.539 423.215 646.577 423.215H662.663C663.441 423.215 664.09 423.475 664.609 423.993C665.214 424.426 665.517 425.031 665.517 425.81C665.517 428.058 664.22 430.653 661.625 433.594C659.117 436.534 655.441 439.085 650.599 441.247C645.755 443.409 640.047 444.49 633.475 444.49ZM644.371 402.589V402.329C644.371 398.092 643.377 394.762 641.388 392.341C639.485 389.832 636.804 388.578 633.345 388.578C629.972 388.578 627.291 389.832 625.302 392.341C623.399 394.762 622.448 398.092 622.448 402.329V402.589H644.371Z" fill="#4A55FF"/>
<path d="M675.401 443.193C674.45 443.193 673.672 442.891 673.066 442.285C672.461 441.68 672.158 440.901 672.158 439.95V378.979C672.158 378.027 672.461 377.249 673.066 376.643C673.672 376.038 674.45 375.736 675.401 375.736H689.541C690.493 375.736 691.271 376.038 691.876 376.643C692.482 377.249 692.784 378.027 692.784 378.979V383.389C694.774 380.795 697.412 378.676 700.698 377.033C704.071 375.303 707.833 374.438 711.984 374.438C721.498 374.438 728.068 378.157 731.704 385.595C733.778 382.308 736.677 379.627 740.394 377.551C744.112 375.476 748.091 374.438 752.332 374.438C759.418 374.438 765.169 376.86 769.584 381.703C774.08 386.46 776.328 393.595 776.328 403.108V439.95C776.328 440.815 776.026 441.593 775.422 442.285C774.817 442.891 774.039 443.193 773.086 443.193H758.036C757.083 443.193 756.264 442.891 755.573 442.285C754.969 441.68 754.667 440.901 754.667 439.95V404.016C754.667 399.692 753.755 396.578 751.942 394.676C750.211 392.773 747.83 391.821 744.803 391.821C742.038 391.821 739.744 392.816 737.931 394.805C736.113 396.708 735.207 399.778 735.207 404.016V439.95C735.207 440.815 734.905 441.593 734.295 442.285C733.691 442.891 732.913 443.193 731.96 443.193H716.915C715.963 443.193 715.184 442.891 714.578 442.285C713.973 441.68 713.67 440.901 713.67 439.95V404.016C713.67 399.778 712.719 396.708 710.817 394.805C709 392.816 706.665 391.821 703.811 391.821C701.044 391.821 698.709 392.816 696.806 394.805C694.99 396.708 694.082 399.735 694.082 403.886V439.95C694.082 440.815 693.779 441.593 693.173 442.285C692.568 442.891 691.79 443.193 690.838 443.193H675.401Z" fill="#4A55FF"/>
<path d="M825.034 444.491C816.385 444.491 809.682 441.593 804.93 435.799V439.951C804.93 440.815 804.622 441.593 804.018 442.285C803.414 442.891 802.636 443.194 801.683 443.194H787.027C786.162 443.194 785.383 442.891 784.692 442.285C784.082 441.593 783.78 440.815 783.78 439.951V354.331C783.78 353.38 784.082 352.601 784.692 351.996C785.383 351.391 786.162 351.088 787.027 351.088H802.851C803.803 351.088 804.582 351.391 805.186 351.996C805.79 352.601 806.098 353.38 806.098 354.331V382.092C810.936 376.99 817.251 374.439 825.034 374.439C833.422 374.439 840.039 377.163 844.883 382.611C849.728 388.06 852.318 395.454 852.667 404.794C852.754 405.919 852.795 407.475 852.795 409.465C852.795 411.367 852.754 412.881 852.667 414.005C852.237 423.691 849.641 431.215 844.883 436.577C840.126 441.853 833.51 444.491 825.034 444.491ZM818.029 427.107C822.095 427.107 824.994 425.897 826.719 423.475C828.537 421.053 829.577 417.724 829.833 413.486C830.007 411.756 830.094 410.416 830.094 409.465C830.094 408.513 830.007 407.173 829.833 405.443C829.577 401.205 828.537 397.876 826.719 395.454C824.994 393.033 822.095 391.822 818.029 391.822C814.224 391.822 811.326 392.989 809.339 395.324C807.347 397.66 806.266 400.6 806.098 404.146L805.964 408.946L806.098 413.875C806.353 417.767 807.393 420.967 809.211 423.475C811.111 425.897 814.05 427.107 818.029 427.107Z" fill="#4A55FF"/>
<path d="M861.659 443.194C860.794 443.194 860.015 442.891 859.324 442.285C858.714 441.593 858.412 440.815 858.412 439.951V354.331C858.412 353.38 858.714 352.601 859.324 351.996C860.015 351.391 860.794 351.088 861.659 351.088H876.965C877.918 351.088 878.696 351.391 879.301 351.996C879.905 352.601 880.207 353.38 880.207 354.331V439.951C880.207 440.901 879.905 441.68 879.301 442.285C878.696 442.891 877.918 443.194 876.965 443.194H861.659Z" fill="#4A55FF"/>
<path d="M900.91 467.842C900.131 467.842 899.481 467.582 898.964 467.063C898.447 466.544 898.185 465.896 898.185 465.117C898.185 464.512 898.313 463.95 898.574 463.431L908.693 439.042L883.785 380.146C883.524 379.455 883.396 378.936 883.396 378.59C883.57 377.811 883.913 377.163 884.436 376.644C884.953 376.038 885.603 375.736 886.382 375.736H901.171C902.983 375.736 904.238 376.644 904.929 378.46L919.719 416.21L934.897 378.46C935.762 376.644 937.058 375.736 938.789 375.736H953.317C954.095 375.736 954.746 376.038 955.263 376.644C955.873 377.163 956.175 377.768 956.175 378.46C956.175 378.806 956.041 379.368 955.785 380.146L919.074 465.117C918.382 466.933 917.081 467.842 915.182 467.842H900.91Z" fill="#4A55FF"/>
<path d="M949.57 443.194C948.879 443.194 948.228 442.934 947.624 442.415C947.101 441.81 946.846 441.161 946.846 440.469C946.846 439.951 946.886 439.562 946.974 439.302L977.458 356.018C977.72 354.98 978.283 354.115 979.149 353.423C980.008 352.731 981.135 352.385 982.518 352.385H1001.72C1003.1 352.385 1004.23 352.731 1005.09 353.423C1005.96 354.115 1006.52 354.98 1006.78 356.018L1037.13 439.302L1037.39 440.469C1037.39 441.161 1037.09 441.81 1036.49 442.415C1035.96 442.934 1035.32 443.194 1034.54 443.194H1018.58C1016.5 443.194 1015.12 442.285 1014.43 440.469L1009.37 427.238H974.734L969.808 440.469C969.111 442.285 967.688 443.194 965.527 443.194H949.57ZM1004.18 408.557L992.12 374.309L980.055 408.557H1004.18Z" fill="#4A55FF"/>
<path d="M1043.66 443.194C1042.79 443.194 1042.01 442.891 1041.32 442.285C1040.72 441.593 1040.41 440.815 1040.41 439.951V355.628C1040.41 354.677 1040.72 353.899 1041.32 353.293C1042.01 352.688 1042.79 352.385 1043.66 352.385H1061.04C1061.99 352.385 1062.77 352.688 1063.37 353.293C1064.06 353.899 1064.41 354.677 1064.41 355.628V439.951C1064.41 440.902 1064.06 441.68 1063.37 442.285C1062.77 442.891 1061.99 443.194 1061.04 443.194H1043.66Z" fill="#4A55FF"/>
<mask id="mask0_642_175" style="mask-type:luminance" maskUnits="userSpaceOnUse" x="135" y="306" width="188" height="188">
<path d="M322.382 306H135V493.382H322.382V306Z" fill="white"/>
</mask>
<g mask="url(#mask0_642_175)">
<path d="M152.704 431.316L137.877 466.171C133.716 475.93 132.934 487.058 143.353 490.934C145.842 491.87 148.366 492.304 150.891 492.304C158.927 492.304 166.572 487.759 169.737 480.307L172.724 473.29L195.588 419.587L218.345 366.084C223.777 356.575 227.107 341.94 248.428 334.07C231.853 331.945 198.439 327.57 198.105 327.57C197.891 327.904 195.659 331.297 195.446 331.631C194.983 332.366 194.521 333.135 194.166 333.937C194.13 334.004 194.13 334.037 194.095 334.07L152.74 431.249C152.74 431.249 152.704 431.283 152.704 431.316Z" fill="url(#paint0_radial_642_175)"/>
<path d="M300.943 431.315L315.771 466.171C319.931 475.928 320.714 487.057 310.295 490.933C307.806 491.869 305.281 492.303 302.757 492.303C294.72 492.303 287.075 487.758 283.911 480.306L280.924 473.289L258.06 419.586L235.303 366.083C229.871 356.573 220.703 336.915 196.217 330.56C199.31 323.309 209.913 322.072 218.199 322.072H240.672H240.849C241.738 322.106 242.592 322.206 243.516 322.34C243.979 322.406 244.476 322.406 244.939 322.507C245.543 322.64 246.112 322.874 246.717 323.041C247.392 323.242 248.068 323.376 248.708 323.643C248.992 323.777 249.277 323.944 249.561 324.077C250.45 324.478 251.304 324.879 252.121 325.381C252.691 325.715 253.152 326.183 253.686 326.584C254.148 326.951 254.682 327.285 255.108 327.686C255.5 328.087 255.855 328.555 256.246 328.99C256.709 329.524 257.206 329.992 257.597 330.56C257.811 330.895 257.989 331.296 258.202 331.63C258.664 332.365 259.126 333.134 259.482 333.936C259.518 334.002 259.518 334.036 259.553 334.069L300.908 431.248C300.908 431.248 300.943 431.282 300.943 431.315Z" fill="url(#paint1_radial_642_175)"/>
</g>
</g>
<defs>
<radialGradient id="paint0_radial_642_175" cx="0" cy="0" r="1" gradientUnits="userSpaceOnUse" gradientTransform="translate(205.401 345.822) rotate(112.412) scale(160.555 109.595)">
<stop stop-color="#142167"/>
<stop offset="1" stop-color="#263DB5"/>
</radialGradient>
<radialGradient id="paint1_radial_642_175" cx="0" cy="0" r="1" gradientUnits="userSpaceOnUse" gradientTransform="translate(306.753 359.471) rotate(132.41) scale(149.029 521.431)">
<stop stop-color="#4259D4"/>
<stop offset="1" stop-color="#6A81FC"/>
</radialGradient>
<clipPath id="clip0_642_175">
<rect width="930" height="187.382" fill="white" transform="translate(135 306)"/>
</clipPath>
</defs>
</svg>
